X:1
T:Frisky Fingers
T:Tom Brier https://musescore.com/user/30298679/scores/5399787 Transcribed from: https://www.youtube.com/watch?v=ro-3l2UMEbo https://www.youtube.com/watch?v=wfS3RQfJ7Ig
T:Frisky Fingers
C:Tom Brier
%%score { ( 1 2 ) | 3 }
L:1/8
Q:1/2=95
M:4/4
K:C
V:1 treble nm="Piano" snm="Pno."
V:2 treble 
V:3 bass 
V:1
"^Allegro""^Swing 8ths."!8va(! c''[c'_a']^f' | [c'e'g']a' (3[^d'e']c'a g!8va)! c'[c_a]^f | %2
 [ceg]a (3[^de]cA Gg[Ge]c | [GBg]ed[G^A^cg]- [GAcg]c[Ge]G- | [GBdg]2 GA Bcd^d || %5
 [Ee] z [Gg]2 .[Bd] z [Cc]2 | .[EG] z [Ee]2 .[Gc] z [A,A]2 | %7
 .[CF][^G,^G][A,A][B,B] [Dd] [Cc]2 [CE=G]- | [CEG]^GAB d [E=Gc]2 [F_cf]- | %9
 [Fcf]_d[F_c_e]f (3[Fce]fe d[F_Bf]- | [FBf]_d[F_B_e]f (3[FBe]fe d[F=B=df]- | %11
 [FBdf][Gd][Bg][Af] [Fd] [Af]2 [E^GBe]- | %12
 [EGBe] [_E=G_B_e]2 [D^FAd]- [DFAd][_D=F_A_d][Ee][=EGc=e]- | [EGce] z [Gg]2 .[Bd] z [Cc]2 | %14
 .[EG] z [Ee]2 .[G_Bc] z [GAcg]2 | z [Aa] [Gcg][Ff] [Cc] [DAd]2 [_E_Gc_e]- | %16
 [EGce]!8va(! f'[c'_e']_b' _a'c''[c'a']^f' | [c'e'g']a' (3[^d'e']c'a g!8va)! c'[c_a]^f | %18
 [ceg]a (3[^de]cA Gg[Ge]c | [Ae] [^Fd]2 [^fb] [cea]2 e'[=fbd']- | [fbd'][gb][fa]e [Bg]d[Af]^d || %21
 [EGce] z [Gg]2 .[Bd] z [Cc]2 | .[EG] z [Ee]2 .[Gc] z [A,A]2 | %23
 .[CF][^G,^G][A,A][B,B] [Dd] [Cc]2 [CE=G]- | [CEG]^GAB d [E=Gc]2 [F_cf]- | %25
 [Fcf]_d[F_c_e]f (3[Fce]fe d[F_Bf]- | [FBf]_d[F_B_e]f (3[FBe]fe d[F=B=df]- | %27
 [FBdf][Gd][Bg][Af] [Fd] [Af]2 [E^GBe]- | %28
 [EGBe] [_E=G_B_e]2 [D^FAd]- [DFAd][_D=F_A_d][Ee][=EGc=e]- | [EGce] z [Gg]2 .[Bd] z [Cc]2 | %30
 .[EG] z [Ee]2 .[G_Bc] z [GAcg]2 | z [Aa] [Gcg][Ff] [Cc] [DAd]2 [_E_Gc_e]- | %32
 [EGce]!8va(! f'[c'_e']_b' _a'c''[c'a']^f' | [c'e'g']a' (3[^d'e']c'a g!8va)! c'[c_a]^f | %34
 [ceg]a (3[^de]cA Gg[Ge]c | [Ae] [^Fd]2 [^fb] [=fa]g[^dea][cegc']- | %36
 [cegc']g (3[^dea]ga [cegc']3 [GB=dg]- || [GBdg][Ae][^A_e][Bd] [Gg]!8va(![ae'][^a_e'][bd'] | %38
 [gg']d'[^abe']d' [abe'] [gbd'g']2!8va)! [Ace=a]- | %39
 [Acea][da][^d_a][eg] [cc']!8va(![d'a'][^d'_a'][e'g'] | %40
 [c'c'']g'[^d'e'a']g' [d'e'a'] [c'e'g'c'']2 [=d'f'^g'd'']- | %41
 [d'f'g'd'']^g'[c'f'c'']g' [d'f'd''] [c'f'g'c'']2 [d'^f'g'd'']- | %42
 [d'f'g'd'']^g'[c'^f'c'']g' [d'f'd''] [c'f'g'c'']2 [^d'g'] | %43
 [e'a']2 [^g^d'][ae']- [ae']!8va)![^dg] [ea]2 | [^G^d] [Ae]2 [d^g] [ea]=g-[g^c'e'][gbd'g']- | %45
 [gbd'g'][Ae][^A_e][Bd] [Gg]!8va(![ae'][^a_e'][bd'] | %46
 [gg']d'[^abe']d' [abe'] [gbd'g']2!8va)! [cegc']- | %47
 [cegc'][da][^d_a][eg] [cc']!8va(![d'a'][^d'_a'][e'g'] | %48
 [c'c'']g'[^d'e'a']g' [d'e'a'] [c'e'g'c'']2 [^c'^c''] | %49
 (3[d'f'a'd''][d'f'a'd''][d'f'a'd''] [d'f'a'd''][e'e''] [d'd''] [c'f'a'c'']2 [^c'^c''] | %50
 (3[d'f'_a'd''][d'f'a'd''][d'f'a'd''] [d'f'a'd''][e'e''] [d'd''] [c'f'a'c'']2 [ac'e'=a']- | %51
 [ac'e'a']e'[gg'][^d'a'] [e'g'] [c'e']2 [a^c'e'a']- | %52
 [ac'e'a']e'[g^c'g'][_b_b'] [aa'] [gc'e']2!8va)! [^fa=c'e']- | %53
 [fac'e'][ae'][^fd'][fb] [ca] [Ae]2 [GBdg]- | [GBdg][gb][fa]e [Bg]d[Af]^d | %55
 [Gce]a[ceg][FA]- [FA]c [FGBd]2 | [EGc] z (3GAB (3cd^d e[GB=dg]- || %57
 [GBdg][Ae][^A_e][Bd] [Gg]!8va(![ae'][^a_e'][bd'] | %58
 [gg']d'[^abe']d' [abe'] [gbd'g']2!8va)! [Ace=a]- | %59
 [Acea][da][^d_a][eg] [cc']!8va(![d'a'][^d'_a'][e'g'] | %60
 [c'c'']g'[^d'e'a']g' [d'e'a'] [c'e'g'c'']2 [=d'f'^g'd'']- | %61
 (3[d'f'g'd'']f'^g' [c'f'c'']g' [d'f'd''] [c'f'g'c'']2 [d'^f'g'd'']- | %62
 (3[d'f'g'd'']^f'^g' [c'f'c'']g' [d'f'd''] [c'f'g'c'']2 [^d'g'] | %63
 [e'a']2 [^g^d'][ae']- [ae']!8va)![^dg] [ea]2 | [^G^d] [Ae]2 [d^g] [ea]=g-[g^c'e'][gbd'g']- | %65
 [gbd'g'][Ae][^A_e][Bd] [Gg]!8va(![ae'][^a_e'][bd'] | %66
 [gg']d'[^abe']d' [abe'] [gbd'g']2!8va)! [ceg_bc']- | %67
 [cegbc'][da][^d_a][eg] [cc']!8va(![d'a'][^d'_a'][e'g'] | %68
 [c'c'']g'[^d'e'a']g' [d'e'a'] [c'e'g'c'']2 [^c'^c''] | %69
 (3[d'f'a'd''][d'f'a'd''][d'f'a'd''] [d'f'a'd''][e'e''] [d'd''] [c'f'a'c'']2 [^c'^c''] | %70
 (3[d'f'_a'd''][d'f'a'd''][d'f'a'd''] [d'f'a'd''][e'e''] [d'd''] [c'f'a'c'']2 [ac'e'=a']- | %71
 [ac'e'a']e'[gg'][^d'a'] [e'g'] [c'e']2 [a^c'e'a']- | %72
 [ac'e'a']e'[g^c'g'][_b_b'] [aa'] [gc'e']2!8va)! [^fa=c'e']- | %73
 [fac'e'][ae'][^fd'][fb] [ca] [Ae]2 [GBdg]- | [GBdg][gb][fa]e [Bg]d[Af][^F^d] | %75
 [Ge]a[ceg][FA]- [FA]c [FGBd]2 | [EGc]2 [G,G][A,A] [B,B][Cc][Dd][^D^d] || %77
 [Ee] z [Gg]2 .[Bd] z [Cc]2 | .[EG] z [Ee]2 .[Gc] z [A,A]2 | %79
 .[CF][^G,^G][A,A][B,B] [Dd] [Cc]2 [CE=G]- | [CEG]^GAB d [E=Gc]2 [F_cf]- | %81
 [Fcf]_d[F_c_e]f (3[Fce]fe d[F_Bf]- | [FBf]_d[F_B_e]f (3[FBe]fe d[F=B=df]- | %83
 [FBdf][Gd][Bg][Af] [Fd] [Af]2 [E^GBe]- | %84
 [EGBe] [_E=G_B_e]2 [D^FAd]- [DFAd][_D=F_A_d][Ee][=EGc=e]- | [EGce] z [Gg]2 .[Bd] z [Cc]2 | %86
 .[EG] z [Ee]2 .[G_Bc] z [GAcg]2 | z [Aa] [Gcg][Ff] [Cc] [DAd]2 [_E_Gc_e]- | %88
 [EGce]!8va(! f'[c'_e']_b' _a'c''[c'a']^f' | [c'e'g']a' (3[^d'e']c'a g!8va)! c'[c_a]^f | %90
 [ceg]a (3[^de]cA Gg[Ge]c | [Ae] [^Fd]2 [^fb] [=fa]g[^dea][cegc']- | %92
 [cegc']g (3[^dea]ga [cegc']4 ||[K:F] (CD (3FGA cd (3fga | %94
 [cc']2) [ee']2 [^g=b] z [dgbd'][ce=g_bc']- | %95
 [cegbc'][da][^d_a][eg] [cc']!8va(![d'a'][^d'_a'][e'g'] | %96
 [c'c'']g'[^d'e'a']g' [d'e'a'] [c'e'g'c'']3!8va)! | (DE (3GAB de (3gab | %98
 [dd']2) [ee']2 [^g=b] z [dgbd'][fac'f']- | %99
 [fac'f'][gd'][^g_d'][ac'] [ff']!8va(![g'd''][^g'_d''][a'c''] | %100
 [f'f'']c''[^g'a'd'']c'' [g'a'd''] [f'a'c''f'']3 | z g' [b_d'f']2 _e' [fbd']2!8va)! [Bb] | %102
 [Acfa] [Bb]2 [cfac']- [cfac']4 | z b [^cga]2 e [Gcg]2 [Aa] | [Gdg] [Aa]2 [FAdf]- [FAdf]4 | %105
 [Gg][=Bd][Gg][^G^g]- [Gg][^B^d][Gg][Aa]- | [Aa][df][Aa][=Bdf=b]- [Bdfb][fg][Bb][cegc']- | %107
 [cegc']b [Bcf]2 _a [_A_c_f]2 _g | [_G__B__e]2 f[F_A_d]- [FAd]=e [E=G_Bc]2 || (CD (3FGA cd (3fga | %110
 [cc']2) [ee']2 [^g=b] z [dgbd'][ce=g_bc']- | %111
 [cegbc'][da][^d_a][eg] [cc']!8va(![d'a'][^d'_a'][e'g'] | %112
 [c'c'']g'[^d'e'a']g' [d'e'a'] [c'e'g'c'']3!8va)! | (FG (3Acd fg (3ac'd' | %114
 [ff']2) [dd']2 [fa] z [Aa][cfc']- | [cfc']f[Bb][dd'] [cc'] [Bfb]2 [cfc']- | %116
 [cfc']f[Bb][_d_d'] [cc'] [Bfb]2 [Acfa]- | %117
 [Acfa] [c_eac']2 [_c-__e_a-_c'-] [ceac'] [B_dgb]2 [A=c^f=a]- | %118
 [Acfa]^f[Aa][cfc'] [Bb] [Aa]2 [GBdg]- | %119
 [GBdg] [dgbd']2 [_d_g__b_d']- [dgbd'] [cf_ac']2 [=Be^g=b]- | %120
 [Begb]^g[=Be=b][dd'] [cc'] [Beb]2 [ceac']- | [ceac']2 [eac'e']2 [d^g=bd']2 [ce_bc']2 | %122
 [fac'f']c'[^gad']f' [fd'] [db]2 =b | [cfac']d' (3[^ga]fd cc'[=egd']c' | %124
 [faf']c'[^dad']c' d' [egbc']3 || (CD (3FGA cd (3fga | (3[cc'])fa [ee']^g =b [dgd']2 [ce=g_bc']- | %127
 [cegbc'][da][^d_a][eg] [cc']!8va(![d'a'][^d'_a'][e'g'] | %128
 [c'c'']g'[^d'e'a']g' [d'e'a'] [c'e'g'c'']3!8va)! | (DE (3GAB de (3gab | %130
 (3[dd'])gb [ee']^g =b [dgd']2 [fac'f']- | %131
 [fac'f'][gd'][^g_d'][ac'] [ff']!8va(![g'd''][^g'_d''][a'c''] | %132
 [f'f'']c''[^g'a'd'']c'' [g'a'd''] [f'a'c''f'']3 | z g' [b_d'f']2 _e' [fbd']2!8va)! [Bb] | %134
 [Acfa] [Bb]2 [cfac']- [cfac']4 | z b [^cga]2 e [Gcg]2 [Aa] | %136
 [Gdg] [Aa]2 [FAdf]- [FAdf][Ee][Ff][^F^f] | [Gg][=Bd][Gg][^G^g]- [Gg][^B^d][Gg][Aa]- | %138
 [Aa][df][Aa][=Bdf=b]- [Bdfb][fg][Bb][cegc']- | [cegc']b [Bcf]2 _a [_A_c_f]2 _g | %140
 [_G__B__e]2 f[F_A_d]- [FAd]=e [E=G_Bc]2 || (CD (3FGA cd (3fga | %142
 (3[cc'])fa [ee']^g =b [dgd']2 [ce=g_bc']- | %143
 [cegbc'][da][^d_a][eg] [cc']!8va(![d'a'][^d'_a'][e'g'] | %144
 [c'c'']g'[^d'e'a']g' [d'e'a'] [c'e'g'c'']3!8va)! | (FG (3Acd fg (3ac'd' | %146
 [ff']2) [dd']2 [fa] z [Aa][cfc']- | [cfc']f[Bb][dd'] [cc'] [Bfb]2 [cfc']- | %148
 [cfc']f[Bb][_d_d'] [cc'] [Bfb]2 [Acfa]- | [Acfa]c-[c_eac']_c- [c__e_a_c'] [B_dgb]2 [A=c^f=a]- | %150
 [Acfa]^f[Aa][cc'] [Bb] [Aa]2 [GBdg]- | %151
 [GBdg] [dgbd']2 [_d_g__b_d']- [dgbd'] [cf_ac']2 [=Be^g=b]- | %152
 [Begb]^g[=Be=b][dgd'] [cc'] [Beb]2 [ceac']- | [ceac']2 [eac'e']2 [d^g=bd']2 [ce=g_bc']2 | %154
 [fac'f'] [^gad']2 f' [fd'] [db]2 =b | [cfac']d' (3[^ga]fd cc'[=egd']c' | %156
 [faf']!8va(!c''[=e'^g'd'']c'' [f'a'f'']4!8va)! |] %157
V:2
!8va(! z [_Ac_e_g]2 | .[Gceg]2 x3!8va)! x [_A,C_E_G]2 | .[G,C=E=G]2 x6 | x8 | x8 || x8 | x8 | x8 | %8
 x8 | x8 | x8 | x8 | x8 | x8 | x8 | x8 | x!8va(! x [_Ac_e_g]2 [ceg_ac']2 x2 | %17
 .[Gceg]2 x3!8va)! x [_A,C_E_G]2 | .[G,C=E=G]2 x6 | x8 | x8 || x8 | x8 | x8 | x8 | x8 | x8 | x8 | %28
 x8 | x8 | x8 | x8 | x!8va(! x [_Ac_e_g]2 [ceg_ac']2 x2 | .[Gceg]2 x3!8va)! x [_A,C_E_G]2 | %34
 .[G,C=E=G]2 x6 | x8 | x8 || x5!8va(! x3 | x7!8va)! x | x5!8va(! x3 | x8 | x8 | x8 | x5!8va)! x3 | %44
 x8 | x5!8va(! x3 | x7!8va)! x | x5!8va(! x3 | x8 | x8 | x8 | x8 | x7!8va)! x | x8 | x8 | x8 | %56
 x8 || x5!8va(! x3 | x7!8va)! x | x5!8va(! x3 | x8 | x8 | x8 | x5!8va)! x3 | x8 | x5!8va(! x3 | %66
 x7!8va)! x | x5!8va(! x3 | x8 | x8 | x8 | x8 | x7!8va)! x | x8 | x8 | x8 | x8 || x8 | x8 | x8 | %80
 x8 | x8 | x8 | x8 | x8 | x8 | x8 | x8 | x!8va(! x [_Ac_e_g]2 [ceg_ac']2 x2 | %89
 .[Gceg]2 x3!8va)! x [_A,C_E_G]2 | .[G,C=E=G]2 x6 | x8 | x8 ||[K:F] x8 | x8 | x5!8va(! x3 | %96
 x8!8va)! | x8 | x8 | x5!8va(! x3 | x8 | x7!8va)! x | x8 | x8 | x8 | x8 | x8 | x8 | x8 || x8 | x8 | %111
 x5!8va(! x3 | x8!8va)! | x8 | x8 | x8 | x8 | x8 | x8 | x8 | x8 | x8 | x8 | x8 | x8 || x8 | x8 | %127
 x5!8va(! x3 | x8!8va)! | x8 | x8 | x5!8va(! x3 | x8 | x7!8va)! x | %134
 x4 z!8va(! (3a'/b'/=b'/ c''2!8va)! | x8 | x8 | x8 | x8 | x8 | x8 || x8 | x8 | x5!8va(! x3 | %144
 x8!8va)! | x8 | x8 | x8 | x8 | x8 | x8 | x8 | x8 | x8 | x8 | x8 | x!8va(! x7!8va)! |] %157
V:3
 x x2 | x8 | x4 z3 G,,- | [G,,D,B,]2 G,,-[G,,^C,^A,]- [G,,C,A,]G,,-[G,,C,A,]G,,- | %4
 [G,,D,B,]2 G,A, B,CD^D || [C,G,C] z [B,,B,]2 z2 [A,,E,A,]2 | z2 [G,,E,G,]2 z2 [F,,C,F,]2- | %7
 [F,,C,F,]F,,- [F,,F,]A,,- [A,,A,]_A,,-[A,,_A,]G,,- | [G,,G,]2 .[E,G,C]2 [C,,C,]2 [E,G,]_D,,- | %9
 [D,,_A,,F,]2 .[_D,F,_A,_C]2 [_A,,,A,,]2 .[D,F,A,C]2 | %10
 [_G,,,_G,,]2 .[_D,_G,_B,]2 [_D,,D,]2 .[G,,G,]=G,,- | [G,,G,]2 .[F,B,D]2 [G,,,G,,]2 .[F,B,D]E,- | %12
 [E,^G,B,D]_E,-[E,=G,_B,_D]D,- [D,^F,A,C]_D,-[D,=F,_A,_C]C,- | %13
 [C,E,G,] z [B,,B,]2 z2 [A,,C,E,A,]2 | z2 [G,,C,E,G,]2 z F,,- [F,,C,A,]2 | %15
 .[F,A,C]2 [C,,C,]2 [F,,F,]2 .[F,A,C]_A,,- | [A,,_E,_G,]2 x2 x4 | x8 | x8 | %19
 (D,,A,, (3D,^F,A, D2) (A,,D,,) | (G,,D, (3F,G,B, D)G,,-[G,,D,F,]C, || %21
 [C,G,C] z [B,,B,]2 z2 [A,,E,A,]2 | z2 [G,,E,G,]2 z2 [F,,C,F,]2- | %23
 [F,,C,F,]F,,- [F,,F,]A,,- [A,,A,]_A,,-[A,,_A,]G,,- | %24
 [G,,G,]2 .[E,G,C]2 [E,,E,][D,,D,][C,,C,]_D,,- | %25
 [D,,_A,,F,]2 .[_D,F,_A,_C]2 [_A,,,A,,]2 [_D,,D,]2 | %26
 [_G,,,_G,,]2 .[_D,_G,_B,]2 [_D,,D,]2 .[G,,G,]=G,,- | %27
 [G,,F,B,]2 .[F,G,B,D]2 [G,,,G,,]2 .[F,G,B,D]E,- | %28
 [E,^G,B,D]_E,-[E,=G,_B,_D]D,- [D,^F,A,C]_D,-[D,=F,_A,_C]C,- | [C,E,G,] z [B,,B,]2 z2 [A,,E,A,]2 | %30
 z2 [G,,E,G,]2 z2 [F,,C,F,]2 | .[F,A,C]2 [C,,C,]2 [F,,F,]2 .[F,A,C]_A,,- | [A,,_E,_G,]2 x2 x4 | %33
 x8 | x8 | D,,A,, (3D,^F,G,,- [G,,D,=F,]D,-[D,F,G,B,]C,- | %36
 [C,G,C]2 [G,,D,F,]2 [C,,C,]2 [E,,E,][_E,,_E,] || %37
 [D,,D,]2 .[G,B,DF]2 [G,,,G,,]2 .[G,B,DF][^C,,^C,] | [D,,D,]2 .[G,B,DF]2 [G,,,G,,]2 .[G,B,DF]C,,- | %39
 [C,,G,,E,]2 .[G,CE]2 [G,,,G,,]2 .[G,CE]C,,- | [C,,G,,E,]2 .[G,CE][C,,C,] [D,,D,]2 [E,,E,]F,,- | %41
 [F,,C,_A,]2 .[F,A,CD]F,,- [F,,F,]G,,-[G,,G,]_A,,- | %42
 [A,,_E,_G,]2 .[E,G,_A,C]2 [_A,,,_A,,]2 .[E,G,A,C]2 |"_straight 8ths"!ped! (C,,E,,G,,A,, C,E,G,A, | %44
 CA,G,E, C,)!ped-up!^C,,-[C,,E,]D,,- | [D,,F,]2 .[G,B,DF]2 [G,,,G,,]2 .[G,B,DF]D,,- | %46
 [D,,F,]2 .[G,B,DF]2 [G,,,G,,]2 .[G,B,DF]C,,- | [C,,G,,E,]2 .[G,_B,CE]2 [G,,,G,,]2 .[G,B,CE]C,,- | %48
 [C,,G,,E,]2 .[G,CE][C,,C,] [D,,D,]2 [E,,E,]F,,- | [F,,C,A,]2 .[A,CF]2 .[A,CF]2 [C,,C,]F,,- | %50
 [F,,C,_A,]2 .[F,A,CD]2 .[F,A,CD]2 [F,,F,]C,,- | %51
 [C,,G,,E,]2 .[G,CE]C,,- [C,,C,]_B,,,-[B,,,_B,,]A,,,- | %52
 [A,,,E,,A,,]2 .[G,A,^CE][A,,,A,,] [B,,,B,,]2 [^C,,^C,]D,,- | %53
 [D,,A,,^F,]2 .[D,F,A,C]2 [^F,,F,]2 .[D,F,A,C]G,,- | %54
 [G,,D,B,]2 .[G,B,DF]2 [G,,,G,,]2 .[D,F,G,B,]C,,- | %55
 [C,,G,,E,]2 .[G,CE][F,,F,]- [F,,F,]G,,-[G,,D,F,]C,- | [C,G,C] z z C,,- [C,,E,]^C,,-[C,,E,]D,,- || %57
 [D,,F,]2 .[G,B,DF]2 [G,,,G,,]2 .[G,B,DF][^C,,^C,] | [D,,D,]2 [G,,,G,,]2 [G,B,DF]2 .[G,,G,]C,,- | %59
 [C,,G,,E,]2 .[G,CE]2 [G,,,G,,]2 .[G,CE][^F,,^D,] | [G,,E,]2 [C,,C,]2 [G,_B,CE]2 [E,,E,]F,,- | %61
 [F,,C,_A,]2 .[F,A,CD]2 [F,,F,]2 [G,,G,]_A,,- | %62
 [A,,_E,_G,]2 .[E,G,_A,C]2 [_A,,,_A,,]2 .[E,G,A,C]2 |!ped! (C,,E,,G,,A,, C,E,G,A, | %64
 CA,G,E, C,)!ped-up!^C,,-[C,,E,]D,,- | [D,,F,]2 .[G,B,DF]2 [G,,,G,,]2 .[G,B,DF]D,,- | %66
 [D,,F,]2 .[G,B,DF]2 [G,,,G,,]2 .[G,B,DF]C,,- | %67
 [C,,G,,C,]C,,-[C,,G,,^C,]C,,- [C,,G,,D,]C,,-[C,,G,,^D,]C,,- | %68
 [C,,G,,E,]C,,-[C,,G,,C,]D,,- [D,,D,]E,,-[E,,E,]F,,- | %69
 [F,,C,A,]2 .[A,CF]C,- [C,,C,]2 .[A,CF]F,,,- | [F,,,F,,]2 .[F,_A,CD]A,- [F,,A,]2 .[F,A,CD]C,,- | %71
 [C,,G,,E,]2 .[G,CE]2 [C,,C,][_C,,_C,][_B,,,_B,,][G,,,G,,] | %72
 [A,,,A,,]2 .[G,A,^CE][A,,,A,,] [=B,,,=B,,]2 .[^C,,^C,]D,,- | %73
 [D,,A,,^F,]2 .[D,F,A,C]2 [^F,,F,]2 .[D,F,A,C]G,,- | %74
 [G,,D,B,]2 .[G,B,DF]2 [G,,,G,,]2 .[G,B,DF]C,,- | %75
 [C,,G,,E,]2 .[G,CE][F,,F,]- [F,,F,]G,,-[G,,D,F,]C,- | %76
 [C,G,C]2 z [G,,D,F,]- [G,,D,F,]2 [G,,,G,,]2 || [C,G,C] z [B,,B,]2 z2 [A,,C,E,A,]2 | %78
 z2 [G,,C,E,G,]2 z2 [F,,C,F,]2- | [F,,C,F,]F,,- [F,,F,]A,,- [A,,A,]_A,,-[A,,_A,]G,,- | %80
 [G,,E,G,]2 .[E,G,C]2 [E,,E,][D,,D,][C,,C,]_D,,- | %81
 [D,,_A,,F,]2 .[_D,F,_A,_C]_A,,,- [A,,,A,,]_D,,-[D,,D,]_G,,,- | %82
 [G,,,_G,,]2 .[_D,_G,_B,]2 [_D,,D,]2 .[G,,G,]2 | [G,,G,]2 .[F,G,B,D]2 [G,,,G,,]2 .[F,G,B,D]E,- | %84
 [E,^G,B,D]_E,-[E,=G,_B,_D]D,- [D,^F,A,C]_D,-[D,=F,_A,_C]C,- | [C,E,G,] z [B,,B,]2 z2 [A,,E,A,]2 | %86
 z2 [G,,C,G,]2 z F,,- [F,,C,A,]2 | .[F,A,C]2 [C,,C,]2 [F,,F,]2 .[F,A,C]_A,,- | [A,,_E,_G,]2 x2 x4 | %89
 x8 | x8 | D,,A,, (3D,^F,G,,- [G,,D,=F,]D,-[D,F,G,B,]C,- | [C,G,C]2 [G,,D,F,]2 [C,,C,]2 _B,F,,- || %93
[K:F] [F,,C,A,]2 .[F,A,C]2 [C,,C,]2 .[A,CF]A,,- | %94
 [A,,F,C]_A,,- [A,,F,_C]2 .[F,_A,CD]A,,-[A,,F,C]G,,- | %95
 [G,,E,B,]2 .[G,B,CE]2 [C,,C,]2 .[G,B,CE]G,,- | [G,,E,B,]2 .[G,B,CE]2 [C,,C,]2 .[G,B,CE]G,,- | %97
 [G,,D,B,]2 .[G,B,D]2 [D,,D,]2 .[G,B,D]G,,- | %98
 [G,,D,B,]^G,,- [G,,F,=B,]2 .[F,^G,B,D]G,,-[G,,F,B,]A,,- | %99
 [A,,F,C]2 .[A,CF]2 [C,,C,]2 .[A,CF]F,,- | [F,,C,A,]2 .[A,CF]2 [A,,A,]2 .[A,CF]2 | %101
!ped! (B,,_D,F,G, B,_DF)F,,-!ped-up! | [F,,C,A,]2 .[A,CF]2 [C,,C,]2 .[A,CF]2 | %103
!ped! (A,,^C,E,G, A,^CE)D,,-!ped-up! | [D,,A,,F,]2 .[F,A,D]2 [A,,,A,,]2 .[F,A,D]2 | %105
 z G,,- [G,,D,=B,]2 _G,,- [G,,_E,C]2 F,,- | %106
 [F,,D,A,]2 D,,[D,,=B,,F,]- [D,,B,,F,]G,,-[G,,D,F,]C,,- | %107
 [C,,G,,E,]F,,- [F,,C,_A,]2 _F,,- [F,,_C,A,]2 __E,,- | %108
 [E,,__B,,_G,]2 _D,,- [D,,_A,,F,]2 C,,-[C,,G,,E,]F,,- || %109
 [F,,C,A,]2 .[F,A,C]2 [C,,C,]2 .[A,CF]A,,- | [A,,F,C]_A,,- [A,,F,_C]2 .[F,_A,CD]A,,-[A,,F,C]G,,- | %111
 [G,,E,B,]2 .[G,B,CE]2 [C,,C,]2 .[G,B,CE]G,,- | [G,,E,B,]2 .[G,B,CE]2 [C,,C,]2 .[G,B,CE]F,,- | %113
 [F,,C,A,]2 .[F,A,C_E]2 [C,,C,]2 .[F,A,CE]F,,- | %114
 [F,,C,A,]A,,- [A,,F,C]2 .[F,A,C_E]A,,-[A,,F,C]B,,- | [B,,F,D]2 .[F,B,D]2 [F,,F,]2 .[F,B,D]B,,- | %116
 [B,,F,_D]2 .[F,B,D]2 [B,,,B,,]2 .[F,B,D]2 | %117
 [F,,F,]F,,-[F,,C,A,]_F,,- [F,,_C,_A,]_E,,-[E,,B,,G,]D,,- | %118
 [D,,A,,^F,]2 .[D,F,A,C]2 [^F,,F,]2 .[D,F,A,C]2 | %119
 [G,,D,G,]G,,-[G,,D,B,]_G,,- [G,,_D,__B,]F,,-[F,,C,_A,]E,,- | %120
 [E,,=B,,^G,]2 .[E,G,=B,D]2 [^G,,G,]2 .[E,G,B,D]2 | %121
 [A,,E,A,]A,,-[A,,E,C]_A,,- [A,,E,_C]G,,-[G,,E,B,]F,,- | %122
 [F,,C,A,]2 .[F,A,C]2 [B,,_A,]2 .[F,A,B,D]C,- | .[C,F,A,] z z2 z C,- [C,E,G,B,]F,,- | %124
 [F,,C,A,]^F,,-[F,,^D,A,]G,,- [G,,E,B,][C,,C,][D,,=D,][E,,E,] || %125
 [F,,F,]2 .[F,A,C]2 [C,,C,]2 .[A,CF]A,,- | [A,,F,C]_A,,- [A,,F,_C]2 .[F,_A,CD]A,,-[A,,F,C]G,,- | %127
 [G,,E,B,]2 .[G,B,CE]2 [C,,C,]2 .[G,B,CE][^F,,^D,] | [G,,E,]2 .[G,B,CE]2 [C,,C,]2 .[G,B,CE]G,,- | %129
 [G,,D,B,]2 .[G,B,D]2 [D,,D,]2 .[G,B,D]G,,- | %130
 [G,,D,B,]^G,,- [G,,F,=B,]2 .[F,^G,B,D]G,,-[G,,F,B,]A,,- | %131
 [A,,F,C]2 .[A,CF]2 [C,,C,]2 .[A,CF]F,,- | [F,,C,A,]2 .[A,CF]2 [A,,A,]2 .[A,CF]2 | %133
!ped! (B,,_D,F,G, B,_DF)F,,-!ped-up! | [F,,C,A,]2 .[F,A,C]2 [C,,C,]2 .[F,A,C]2 | %135
!ped! (A,,^C,E,G, A,^CE)!ped-up!D,,- | [D,,A,,F,]2 .[F,A,D]2 [A,,,A,,]2 .[F,A,D]2 | %137
 z G,,- [G,,D,=B,]2 _G,,- [G,,_E,C]2 F,,- | %138
 [F,,D,A,]2 D,,[D,,=B,,F,]- [D,,B,,F,]G,,-[G,,D,F,]C,,- | %139
 [C,,G,,E,]F,,- [F,,C,_A,]2 _F,,- [F,,_C,A,]2 __E,,- | %140
 [E,,__B,,_G,]2 _D,,- [D,,_A,,F,]2 C,,-[C,,G,,E,]F,,- || %141
 [F,,C,A,]2 .[F,A,C]2 [C,,C,]2 .[A,CF]A,,- | [A,,F,C]_A,,- [A,,F,_C]2 .[F,_A,CD]A,,-[A,,F,C]G,,- | %143
 [G,,E,B,]2 .[G,B,CE]2 [C,,C,]2 .[G,B,CE][^F,,^D,] | [G,,E,]2 .[G,B,CE]2 [C,,C,]2 .[G,B,CE]F,,- | %145
 [F,,C,A,]2 .[F,A,C_E]2 [C,,C,]2 .[F,A,CE]F,,- | [F,,C,A,]A,,- [A,,F,C]2 .[F,A,C_E]2 [A,,A,]B,,- | %147
 [B,,F,D]2 .[F,B,D]2 [F,,F,]2 .[F,B,D]B,,- | [B,,F,_D]2 .[F,B,D]2 [B,,,B,,]2 .[F,B,D]2 | %149
 [F,,F,]F,,-[F,,C,A,]_F,,- [F,,_C,_A,]_E,,-[E,,B,,G,]D,,- | %150
 [D,,A,,^F,]2 .[D,F,A,C]2 [^F,,F,]2 .[D,F,A,C]2 | %151
 [G,,D,G,]G,,-[G,,D,B,]_G,,- [G,,_D,__B,]F,,-[F,,C,_A,]E,,- | %152
 [E,,=B,,^G,]2 .[E,G,=B,D]2 [^G,,G,]2 .[E,G,B,D]2 | %153
 [A,,A,]A,,-[A,,E,C]_A,,- [A,,E,_C]G,,-[G,,E,B,]F,,- | [F,,C,A,]2 .[F,A,C]2 B,,2 .[F,_A,B,D]C,- | %155
 .[C,F,A,C] z z2 z C,- [C,E,G,B,]F,,- | [F,,C,A,]C,,-[C,,C,]F,,,- [F,,,F,,]4 |] %157

